packages/ffe-icons/icons/filled/md/nest_secure_alarm.svg

<svg xmlns="http://www.w3.org/2000/svg" height="24" viewBox="0 -960 960 960" width="24"><path d="M480-444.616q14.692 0 25.038-10.346T515.384-480q0-14.692-10.346-25.038T480-515.384q-14.692 0-25.038 10.346T444.616-480q0 14.692 10.346 25.038T480-444.616Zm120 0q14.692 0 25.038-10.346T635.384-480q0-14.692-10.346-25.038T600-515.384q-14.692 0-25.038 10.346T564.616-480q0 14.692 10.346 25.038T600-444.616Zm-240 0q14.692 0 25.038-10.346T395.384-480q0-14.692-10.346-25.038T360-515.384q-14.692 0-25.038 10.346T324.616-480q0 14.692 10.346 25.038T360-444.616Zm120 120q14.692 0 25.038-10.346T515.384-360q0-14.692-10.346-25.038T480-395.384q-14.692 0-25.038 10.346T444.616-360q0 14.692 10.346 25.038T480-324.616Zm120 0q14.692 0 25.038-10.346T635.384-360q0-14.692-10.346-25.038T600-395.384q-14.692 0-25.038 10.346T564.616-360q0 14.692 10.346 25.038T600-324.616Zm-240 0q14.692 0 25.038-10.346T395.384-360q0-14.692-10.346-25.038T360-395.384q-14.692 0-25.038 10.346T324.616-360q0 14.692 10.346 25.038T360-324.616Zm120-240q14.692 0 25.038-10.346T515.384-600q0-14.692-10.346-25.038T480-635.384q-14.692 0-25.038 10.346T444.616-600q0 14.692 10.346 25.038T480-564.616Zm120 0q14.692 0 25.038-10.346T635.384-600q0-14.692-10.346-25.038T600-635.384q-14.692 0-25.038 10.346T564.616-600q0 14.692 10.346 25.038T600-564.616Zm-240 0q14.692 0 25.038-10.346T395.384-600q0-14.692-10.346-25.038T360-635.384q-14.692 0-25.038 10.346T324.616-600q0 14.692 10.346 25.038T360-564.616Zm120.067 464.615q-78.836 0-148.204-29.92-69.369-29.92-120.682-81.21-51.314-51.291-81.247-120.629-29.933-69.337-29.933-148.173t29.92-148.204q29.92-69.369 81.21-120.682 51.291-51.314 120.629-81.247 69.337-29.933 148.173-29.933t148.204 29.92q69.369 29.92 120.682 81.21 51.314 51.291 81.247 120.629 29.933 69.337 29.933 148.173t-29.92 148.204q-29.92 69.369-81.21 120.682-51.291 51.314-120.629 81.247-69.337 29.933-148.173 29.933Z"/></svg>

<svg xmlns="http://www.w3.org/2000/svg" height="24" viewBox="0 -960 960 960" width="24"><path d="M480-444.62q14.69 0 25.04-10.34 10.34-10.35 10.34-25.04t-10.34-25.04q-10.35-10.34-25.04-10.34t-25.04 10.34q-10.34 10.35-10.34 25.04t10.34 25.04q10.35 10.34 25.04 10.34Zm120 0q14.69 0 25.04-10.34 10.34-10.35 10.34-25.04t-10.34-25.04q-10.35-10.34-25.04-10.34t-25.04 10.34q-10.34 10.35-10.34 25.04t10.34 25.04q10.35 10.34 25.04 10.34Zm-240 0q14.69 0 25.04-10.34 10.34-10.35 10.34-25.04t-10.34-25.04q-10.35-10.34-25.04-10.34t-25.04 10.34q-10.34 10.35-10.34 25.04t10.34 25.04q10.35 10.34 25.04 10.34Zm120 120q14.69 0 25.04-10.34 10.34-10.35 10.34-25.04t-10.34-25.04q-10.35-10.34-25.04-10.34t-25.04 10.34q-10.34 10.35-10.34 25.04t10.34 25.04q10.35 10.34 25.04 10.34Zm120 0q14.69 0 25.04-10.34 10.34-10.35 10.34-25.04t-10.34-25.04q-10.35-10.34-25.04-10.34t-25.04 10.34q-10.34 10.35-10.34 25.04t10.34 25.04q10.35 10.34 25.04 10.34Zm-240 0q14.69 0 25.04-10.34 10.34-10.35 10.34-25.04t-10.34-25.04q-10.35-10.34-25.04-10.34t-25.04 10.34q-10.34 10.35-10.34 25.04t10.34 25.04q10.35 10.34 25.04 10.34Zm120-240q14.69 0 25.04-10.34 10.34-10.35 10.34-25.04t-10.34-25.04q-10.35-10.34-25.04-10.34t-25.04 10.34q-10.34 10.35-10.34 25.04t10.34 25.04q10.35 10.34 25.04 10.34Zm120 0q14.69 0 25.04-10.34 10.34-10.35 10.34-25.04t-10.34-25.04q-10.35-10.34-25.04-10.34t-25.04 10.34q-10.34 10.35-10.34 25.04t10.34 25.04q10.35 10.34 25.04 10.34Zm-240 0q14.69 0 25.04-10.34 10.34-10.35 10.34-25.04t-10.34-25.04q-10.35-10.34-25.04-10.34t-25.04 10.34q-10.34 10.35-10.34 25.04t10.34 25.04q10.35 10.34 25.04 10.34ZM480.07-100q-78.84 0-148.21-29.92t-120.68-81.21q-51.31-51.29-81.25-120.63Q100-401.1 100-479.93q0-78.84 29.92-148.21t81.21-120.68q51.29-51.31 120.63-81.25Q401.1-860 479.93-860q78.84 0 148.21 29.92t120.68 81.21q51.31 51.29 81.25 120.63Q860-558.9 860-480.07q0 78.84-29.92 148.21t-81.21 120.68q-51.29 51.31-120.63 81.25Q558.9-100 480.07-100Z"/></svg>
